packages/kaspersky-hexa-ui-icons/src/iconsSVGs/32/ThreatMalwareBug.svg

<svg xmlns="http://www.w3.org/2000/svg" width="32" height="32" fill="none" viewBox="0 0 32 32"><path fill="#000" fill-rule="evenodd" d="M16 4c-2.7614 0-5 2.2386-5 5v.126C9.5944 9.4878 8.4878 10.5944 8.126 12H7c-.5523 0-1-.4477-1-1V7c0-.5523-.4477-1-1-1s-1 .4477-1 1v4c0 1.6569 1.3431 3 3 3h1v2H6c-.5523 0-1 .4477-1 1s.4477 1 1 1h2v2H7c-1.6569 0-3 1.3431-3 3v4c0 .5523.4477 1 1 1s1-.4477 1-1v-4c0-.5523.4477-1 1-1h1c0 3.3137 2.6863 6 6 6h4c3.3137 0 6-2.6863 6-6h1c.5523 0 1 .4477 1 1v4c0 .5523.4477 1 1 1s1-.4477 1-1v-4c0-1.6569-1.3431-3-3-3h-1v-2h2c.5523 0 1-.4477 1-1s-.4477-1-1-1h-2v-2h1c1.6569 0 3-1.3431 3-3V7c0-.5523-.4477-1-1-1s-1 .4477-1 1v4c0 .5523-.4477 1-1 1h-1.126c-.3618-1.4056-1.4684-2.5122-2.874-2.874V9c0-2.7614-2.2386-5-5-5m3 5c0-1.6569-1.3431-3-3-3s-3 1.3431-3 3zm-7 2c-1.1046 0-2 .8954-2 2v9c0 2.2091 1.7909 4 4 4h1V11zm5 0v15h1c2.2091 0 4-1.7909 4-4v-9c0-1.1046-.8954-2-2-2z"/></svg>

<svg width="32" height="32" viewBox="0 0 32 32" fill="none" xmlns="http://www.w3.org/2000/svg">
<path fill-rule="evenodd" clip-rule="evenodd" d="M16 4C13.2386 4 11 6.23858 11 9V9.12602C9.59439 9.4878 8.4878 10.5944 8.12602 12H7C6.44772 12 6 11.5523 6 11V7C6 6.44772 5.55228 6 5 6C4.44772 6 4 6.44772 4 7V11C4 12.6569 5.34315 14 7 14H8V16H6C5.44772 16 5 16.4477 5 17C5 17.5523 5.44772 18 6 18H8V20H7C5.34315 20 4 21.3431 4 23V27C4 27.5523 4.44772 28 5 28C5.55228 28 6 27.5523 6 27V23C6 22.4477 6.44772 22 7 22H8C8 25.3137 10.6863 28 14 28H18C21.3137 28 24 25.3137 24 22H25C25.5523 22 26 22.4477 26 23V27C26 27.5523 26.4477 28 27 28C27.5523 28 28 27.5523 28 27V23C28 21.3431 26.6569 20 25 20H24V18H26C26.5523 18 27 17.5523 27 17C27 16.4477 26.5523 16 26 16H24V14H25C26.6569 14 28 12.6569 28 11V7C28 6.44772 27.5523 6 27 6C26.4477 6 26 6.44772 26 7V11C26 11.5523 25.5523 12 25 12H23.874C23.5122 10.5944 22.4056 9.4878 21 9.12602V9C21 6.23858 18.7614 4 16 4ZM19 9C19 7.34315 17.6569 6 16 6C14.3431 6 13 7.34315 13 9H19ZM12 11C10.8954 11 10 11.8954 10 13V22C10 24.2091 11.7909 26 14 26H15V11H12ZM17 11V26H18C20.2091 26 22 24.2091 22 22V13C22 11.8954 21.1046 11 20 11H17Z" fill="black"/>
</svg>
